X:1
T:Congratulamini mihi
T:Giovanni Paolo Caprioli
T:Source : Ghirlanda Sacra---Venetia---Ang.Gardano (B.Magni)---1625. Editor :André Vierendeels (17/12/16).
T:Notes : Original clefs : C3, F4 Editorial accidentals above the staff Figures in BC are notated in oroginal print Music collected by  Leonardo Simonetti
T:Congratulamini mihi
T:©
T:©
T:©
T:©
T:©
T:©
C:Giovanni Paolo Caprioli
Z:©
%%score 1 2
L:1/8
Q:1/4=120
M:4/4
K:C
V:1 treble-8 nm="Tenor" snm="T"
V:2 bass nm="MusicXML Part"
V:1
 d6 dd | g2 dd e3 d | d3 c- d4 | d2 e2 f2 ed | c/B/c/d/ e3 e d>c | B2 c4 B2 | c4 z4 | B2 c2 d2 cB | %8
w: Con- gra- tu-|la- mi- ni mi- hi|o- mnes _|qui di- li- gi- tis|Do- * * * * * * *|* * mi-|num,|qui di- li- gi- tis|
 AGAB cBcd | edef gfge | ^f2 g4 f2 | g8 | z4 e2 ee | f2 e/d/c/B/ cd/e/ d/d/d/c/ | dcde feed | %15
w: Do- * * * * * * *||* * mi-|num,|qui- a cum|es- sem _ _ _ par- * * * * * *||
 ed/d/ c>d e/d/c/B/ c>d | B4 G/A/B/c/ d/B/c/A/ | B/c/d/e/ c/d/e/f/ g4- | gffe e3 d | d8 | z4 d4- | %21
w: * * * * * * * * * * vu-|la pla- * * * * * * *||* cu- i al- tis- si-|mo|et|
 d2 B/c/d/B/ e2 cB | A3 A G4 | c6 cc | c6 cd | d6 d2 | c8 | z4 g4- | g2 e/f/g/e/ a2 fe | d3 d d4 | %30
w: _ de _ _ _ me- is vi-|sce- ri- bus|ge- nu- i|De- um et|ho- mi-|nem,|et|_ de _ _ _ me- is vi-|sce- ri- bus|
 G6 GG | G6 GA | A6 A2 | G8 | z4 B2 BB | c2 B/c/B/A/ GA/B/ A/A/A/G/ | AGAB cB/c/ B/B/B/A/ | %37
w: ge- nu- i|De- um et|ho- mi-|nem,|qui- a cum|es- sem _ _ _ par- * * * * * *||
 BA AG/A/ B/A/G/A/ B/c/d/e/ | fe/f/ ed/e/ feed | e4 c/d/e/f/ g/e/f/d/ | eddc dccB | cBBA B3 A | %42
w: |* * * * * * * * * vu-|la pla- * * * * * * *||* cu- i al- tis- si-|
 A8 | z2 dd d2 dc | e3 e e4 | z2 g4 fe | de/f/ ef/g/ f/a/g/f/ e/d/c/B/ | A2 Ad d3 ^c | %48
w: mi,|et de me- is vi-|sce- ri- bus|ge- nu- i|De- * * * * * * * * * * * * *|* um et ho- mi-|
 d2 AA A2 AG | B3 B B4 | z2 d4 cB | A/B/c Bc/d/ cd/e/ de/f/ | e8- | e2 cB B3 A | A8 | %55
w: nem, et de me- is vi-|sche- ri- bus|ge- nu- i|De- * * * * * * * * * * *||* um et ho- mi-|nem,|
 z4 A/G/A/B/ c/A/B/c/ | d/c/d/e/ f/d/e/f/ g2 ee | f3 g/a/ e2 ^f2 | %58
w: ge- * * * * * * *|* * * * * * * * * ni- i|De- * * um et|
 g/d/e/f/ g/d/B/c/ d/G/A/B/ c/d/e/f/ | g2 f/e/d/c/ dG/A/ B/c/d/e/ | ^f2 g4 f2 | g8 |] %62
w: ho- * * * * * * * * * * * * * * *||* * mi-|nem.|
V:2
"^BC" G,,8 | B,,4 C,4 | G,,8 | G,2 E,2 D,2 E,2 | F,4 C,2 D,2 | E,2 C,2 G,4 | C,4 E,2 F,2 | %7
 G,2 F,E, D,2 E,2 | F,4 F,,4 | C,4 E,4 |"^#" D,8 | G,,8 | C,8 | F,2 G,2 A,4 | G,4 D,4 | C,4 A,,4 | %16
 G,,8- | G,,8 |"^#" A,,8 |"^#" D,6 C,2 | B,,2 A,,2 G,,4- | G,,4 C,4 | F,,4- F,,F,E,D, | %23
 C,2 D,2 E,2 C,2 | F,2 G,2 A,2 F,2 | G,4 G,,4 | C,8 | B,,8 | C,4 F,4 | G,6 F,2 | E,2 D,2 C,2 B,,2 | %31
 C,4 E,4 |"^#" D,8 | G,,8- | G,,8 | C,2 D,2 E,4 | D,4 C,4 | G,,8 | D,2 C,2 D,4 | C,8- | C,4 G,,4 | %41
"^#" A,,4 E,4 |"^#" A,,8 | G,,8 | C,6 D,2 | E,2 C,2 E,2 F,2 | G,2 C,2 D,2 E,2 |"^#" F,2 D,2 A,,4 | %48
"^#" D,4 ^F,,4 | G,,6 A,,2 | B,,2 G,,2 B,,2 C,2 |"^#" D,2 G,,2 A,,2 B,,2 | C,2 B,,2 A,,2 G,,2 | %53
 E,,8 |"^#" A,,6 G,,2 | F,,8 | D,4 C,4 | F,,4 A,,4 | G,,8- | G,,8 |"^#" D,8 | G,,8 |] %62

